X: 963
T: The hurling boys
C: anon.
O: Ireland
B: Francis O'Neill: "The Dance Music of Ireland" (1907) no. 963
R: Long dance, set dance
Z: Transcribed by Frank Nordberg - http://www.musicaviva.com
F: http://www.musicaviva.com/abc/tunes/ireland/oneill-1001/oneill-1001-096
3.abc
M: 6/8
L: 1/8
K: G
d|(G2{A}F) G2B|(d2{e}B) G2B|c2A AGA|B2G DEF|(G2{A}F) G2B|(d2{e}B) G2g|fed
 A(B^c)|d3d2::f|e2d e2(f|g2)d B2G|
d2B Gce|(d2{e}B) G2g|edc BcA|(G2{A}F) (E2{F}D)|E2E (EF)G|D2DD2g|edc Bc(A|
G3)G2D|EEE EFG|D2DD2g|e(dc) Bc(A|G3) G2:|
W:
W:
W: From Musica Viva - http://www.musicaviva.com
W: the Internet center for free sheet music downloads.


